**kern	**silbe	**harmony	**phrase	**leadinstrument	**rhyme	**timestamp	**harte
*ICvox	*	*M4/4	*	*	*	*	*M4/4
*VRlead	*	*	*	*	*	*	*
*Hstimme	*	*	*	*	*	*	*
*A:	*	*A:	*	*	*	*	*A:
*M4/4	*	*	*	*	*	*	*
*clefF4	*	*	*	*	*	*	*
r;	.	1r;	.	r	.	0	N.C.
=1	=1	=1	=1	=1	=1	=1	=1
1r	.	1AM	.	banjo	.	0.65	A:maj
=2	=2	=2	=2	=2	=2	=2	=2
1r	.	1AM	.	banjo	.	0.982	A:maj
=3	=3	=3	=3	=3	=3	=3	=3
1r	.	1AM	newline	guitar	.	3.798	A:maj
=4	=4	=4	=4	=4	=4	=4	=4
1r	.	1DM	.	guitar	.	5.126	D:maj
=5	=5	=5	=5	=5	=5	=5	=5
1r	.	1EMm	.	guitar	.	6.454	E:7
=6	=6	=6	=6	=6	=6	=6	=6
1r	.	1AM	.	guitar	.	7.782	A:maj
=7	=7	=7	=7	=7	=7	=7	=7
2r	.	1AM	.	guitar	.	9.11	A:maj
4r	.	.	.	.	.	.	.
4A	In	.	.	.	.	.	.
=8	=8	=8	=8	=8	=8	=8	=8
*>Letter>B	*>Letter>B	*>Letter>B	*>Letter>B	*>Letter>B	*>Letter>B	*>Letter>B	*>Letter>B
*>Label>Verse	*>Label>Verse	*>Label>Verse	*>Label>Verse	*>Label>Verse	*>Label>Verse	*>Label>Verse	*>Label>Verse
4c#	eight-	1AM	newline	voice	.	10.438	A:maj
4e	-teen	.	.	.	.	.	.
4c#	four-	.	.	.	.	.	.
8A	-teen	.	.	.	.	.	.
8A	we	.	.	.	.	.	.
=9	=9	=9	=9	=9	=9	=9	=9
8B	took	1DM	.	voice	.	11.775	D:maj
8c#	a	.	.	.	.	.	.
8B	lit-	.	.	.	.	.	.
8A	-tle	.	.	.	.	.	.
4F#	trip	.	.	.	A	.	.
8r	.	.	.	.	.	.	.
8A	A-	.	.	.	.	.	.
=10	=10	=10	=10	=10	=10	=10	=10
8B	-long	1EMm	.	voice	.	13.112	E:7
8B	with	.	.	.	.	.	.
8B	Col-	.	.	.	.	.	.
8c#	-onel	.	.	.	.	.	.
8B	Jack-	.	.	.	.	.	.
8A	-son	.	.	.	.	.	.
8F#	down	.	.	.	.	.	.
8E	the	.	.	.	.	.	.
=11	=11	=11	=11	=11	=11	=11	=11
8A	migh-	1AM	.	voice	.	14.449	A:maj
8F#	-ty	.	.	.	.	.	.
8E	Mi-	.	.	.	.	.	.
8C#	-ssi-	.	.	.	.	.	.
4AA	-ssipp	.	.	.	A	.	.
8r	.	.	.	.	.	.	.
8A	We	.	.	.	.	.	.
=12	=12	=12	=12	=12	=12	=12	=12
8c#	took	1AM	newline	voice	.	15.786	A:maj
8B#	a	.	.	.	.	.	.
8c#	lit-	.	.	.	.	.	.
8B#	-tle	.	.	.	.	.	.
8c#	ba-	.	.	.	.	.	.
8B	-con	.	.	.	.	.	.
8A	and	.	.	.	.	.	.
8A	we	.	.	.	.	.	.
=13	=13	=13	=13	=13	=13	=13	=13
8B	took	1DM	.	voice	.	17.143	D:maj
8A	a	.	.	.	.	.	.
8B	lit-	.	.	.	.	.	.
8A	-tle	.	.	.	.	.	.
4F#	beans	.	.	.	B	.	.
8F#	And	.	.	.	.	.	.
8A	we	.	.	.	.	.	.
=14	=14	=14	=14	=14	=14	=14	=14
8B	caught	1EMm	.	voice	.	18.501	E:7
8A	the	.	.	.	.	.	.
8B	bloo-	.	.	.	.	.	.
8c#	-dy	.	.	.	.	.	.
8B	Bri-	.	.	.	.	.	.
8A	-tish	.	.	.	.	.	.
8F#	in	.	.	.	.	.	.
8E	the	.	.	.	.	.	.
=15	=15	=15	=15	=15	=15	=15	=15
8A	town	1AM	.	voice	.	19.858	A:maj
8A	of	.	.	.	.	.	.
8F#	New	.	.	.	.	.	.
8E	Or-	.	.	.	.	.	.
4AA	-leans	.	.	.	B	.	.
8r	.	.	.	.	.	.	.
8AA	We	.	.	.	.	.	.
=16	=16	=16	=16	=16	=16	=16	=16
*>Letter>C	*>Letter>C	*>Letter>C	*>Letter>C	*>Letter>C	*>Letter>C	*>Letter>C	*>Letter>C
*>Label>Chorus	*>Label>Chorus	*>Label>Chorus	*>Label>Chorus	*>Label>Chorus	*>Label>Chorus	*>Label>Chorus	*>Label>Chorus
4C#	fire	1AM	newline	voice	.	21.216	A:maj
4E	our	.	.	.	.	.	.
4E	guns	.	.	.	.	.	.
8E	and	.	.	.	.	.	.
8C#	the	.	.	.	.	.	.
=17	=17	=17	=17	=17	=17	=17	=17
8E	Bri-	1AM	.	voice	.	22.576	A:maj
8E	-tish	.	.	.	.	.	.
8E	kept	.	.	.	.	.	.
8C#	a	.	.	.	.	.	.
8BB	com-	.	.	.	(C	.	.
8AA	-in'	.	.	.	c)	.	.
8r	.	.	.	.	.	.	.
8AA	There	.	.	.	.	.	.
=18	=18	=18	=18	=18	=18	=18	=18
8C#	wa-	1AM	.	voice	.	23.936	A:maj
8E	-sn't	.	.	.	.	.	.
8E	nigh	.	.	.	.	.	.
8E	as	.	.	.	.	.	.
8E	ma-	.	.	.	.	.	.
8E	-ny	.	.	.	.	.	.
8E	as	.	.	.	.	.	.
8E	there	.	.	.	.	.	.
=19	=19	=19	=19	=19	=19	=19	=19
8E	was	2EM	.	voice	.	25.296	E:maj
8AA	a	.	.	.	.	.	.
8BB	while	.	.	.	.	.	.
8GG#	a-	.	.	.	.	.	.
4AA	-go	2AM	.	voice	D	25.976	A:maj
8r	.	.	.	.	.	.	.
8AA	We	.	.	.	.	.	.
=20	=20	=20	=20	=20	=20	=20	=20
4C#	fire	1AM	newline	voice	.	26.656	A:maj
4E	once	.	.	.	.	.	.
4E	more	.	.	.	.	.	.
8C#	and	.	.	.	.	.	.
[8E	they	.	.	.	.	.	.
=21	=21	=21	=21	=21	=21	=21	=21
8E]	_	1AM	.	voice	.	28.009	A:maj
8F#	be-	.	.	.	.	.	.
8E	-gan	.	.	.	.	.	.
8C#	to	.	.	.	.	.	.
8BB	run-	.	.	.	(C	.	.
8AA	-nin'	.	.	.	c)	.	.
8r	.	.	.	.	.	.	.
8AA	On	.	.	.	.	.	.
=22	=22	=22	=22	=22	=22	=22	=22
8C#	down	1AM	.	voice	.	29.363	A:maj
8E	the	.	.	.	.	.	.
8E	Mi-	.	.	.	.	.	.
8E	-ssi-	.	.	.	.	.	.
8E	-ssi-	.	.	.	.	.	.
8E	-ppi	.	.	.	.	.	.
8E	to	.	.	.	.	.	.
8E	the	.	.	.	.	.	.
=23	=23	=23	=23	=23	=23	=23	=23
8E	Gulf	2EM	.	voice	.	30.716	E:maj
8AA	of	.	.	.	.	.	.
8BB	Me-	.	.	.	.	.	.
8GG#	-xi-	.	.	.	.	.	.
2AA	-co	2AM	.	voice	D	31.393	A:maj
=24	=24	=24	=24	=24	=24	=24	=24
1r	.	1AM	.	voice	.	32.07	A:maj
=25	=25	=25	=25	=25	=25	=25	=25
2.r	.	1AM	.	voice	.	33.424	A:maj
4B#	We	.	.	.	.	.	.
=26	=26	=26	=26	=26	=26	=26	=26
*>Letter>B	*>Letter>B	*>Letter>B	*>Letter>B	*>Letter>B	*>Letter>B	*>Letter>B	*>Letter>B
*>Label>Verse	*>Label>Verse	*>Label>Verse	*>Label>Verse	*>Label>Verse	*>Label>Verse	*>Label>Verse	*>Label>Verse
8c#	looked	1AM	newline	voice	.	34.777	A:maj
8r	.	.	.	.	.	.	.
8c#	down	.	.	.	.	.	.
8B#	the	.	.	.	.	.	.
8c#	ri-	.	.	.	.	.	.
8B	-ver	.	.	.	.	.	.
8A	and	.	.	.	.	.	.
8A	we	.	.	.	.	.	.
=27	=27	=27	=27	=27	=27	=27	=27
8B	seed	1DM	.	voice	.	36.139	D:maj
8A	the	.	.	.	.	.	.
8B	Bri-	.	.	.	.	.	.
8A	-tish	.	.	.	.	.	.
4F#	come	.	.	.	C	.	.
8A	And	.	.	.	.	.	.
8A	there	.	.	.	.	.	.
=28	=28	=28	=28	=28	=28	=28	=28
8B	must	1EMm	.	voice	.	37.501	E:7
8B	have	.	.	.	.	.	.
8B	been	.	.	.	.	.	.
8c#	a	.	.	.	.	.	.
8B	hun-	.	.	.	.	.	.
8A	-dred	.	.	.	.	.	.
8F#	of	.	.	.	.	.	.
8E	'em	.	.	.	.	.	.
=29	=29	=29	=29	=29	=29	=29	=29
8A	bea-	1AM	.	voice	.	38.863	A:maj
8A	-tin'	.	.	.	.	.	.
8A	on	.	.	.	.	.	.
8A	the	.	.	.	.	.	.
4E	drum	.	.	.	C	.	.
8r	.	.	.	.	.	.	.
8A	They	.	.	.	.	.	.
=30	=30	=30	=30	=30	=30	=30	=30
4c#	stepped	1AM	newline	voice	.	40.225	A:maj
8c#	so	.	.	.	.	.	.
8B#	_	.	.	.	.	.	.
8c#	high	.	.	.	.	.	.
8B	_	.	.	.	.	.	.
8A	and	.	.	.	.	.	.
8A	they	.	.	.	.	.	.
=31	=31	=31	=31	=31	=31	=31	=31
8B	made	1DM	.	voice	.	41.584	D:maj
8A	their	.	.	.	.	.	.
8B	bu-	.	.	.	.	.	.
8A	-gles	.	.	.	.	.	.
4F#	ring	.	.	.	E	.	.
8r	.	.	.	.	.	.	.
8A	We	.	.	.	.	.	.
=32	=32	=32	=32	=32	=32	=32	=32
8B	stood	1EMm	.	voice	.	42.943	E:7
8A	be-	.	.	.	.	.	.
8B	-hind	.	.	.	.	.	.
8A	our	.	.	.	.	.	.
8B	cot-	.	.	.	.	.	.
8A	-ton	.	.	.	.	.	.
8F#	bales	.	.	.	.	.	.
8E	and	.	.	.	.	.	.
=33	=33	=33	=33	=33	=33	=33	=33
8A	di-	1AM	.	voice	.	44.302	A:maj
8A	-dn't	.	.	.	.	.	.
8A	say	.	.	.	.	.	.
8A	a	.	.	.	.	.	.
4AA	thing	.	.	.	E	.	.
8r	.	.	.	.	.	.	.
8AA	We	.	.	.	.	.	.
=34	=34	=34	=34	=34	=34	=34	=34
*>Letter>C	*>Letter>C	*>Letter>C	*>Letter>C	*>Letter>C	*>Letter>C	*>Letter>C	*>Letter>C
*>Label>Chorus	*>Label>Chorus	*>Label>Chorus	*>Label>Chorus	*>Label>Chorus	*>Label>Chorus	*>Label>Chorus	*>Label>Chorus
4C#	fire	1AM	newline	voice	.	45.661	A:maj
4E	our	.	.	.	.	.	.
4E	guns	.	.	.	.	.	.
8E	and	.	.	.	.	.	.
8C#	the	.	.	.	.	.	.
=35	=35	=35	=35	=35	=35	=35	=35
8E	Bri-	1AM	.	voice	.	47.034	A:maj
8E	-tish	.	.	.	.	.	.
8E	kept	.	.	.	.	.	.
8C#	a	.	.	.	.	.	.
8BB	com-	.	.	.	(C	.	.
8AA	-in'	.	.	.	c)	.	.
8r	.	.	.	.	.	.	.
8AA	There	.	.	.	.	.	.
=36	=36	=36	=36	=36	=36	=36	=36
8C#	wa-	1AM	.	voice	.	48.406	A:maj
8E	-sn't	.	.	.	.	.	.
8E	nigh	.	.	.	.	.	.
8E	as	.	.	.	.	.	.
8E	ma-	.	.	.	.	.	.
8E	-ny	.	.	.	.	.	.
8E	as	.	.	.	.	.	.
8E	there	.	.	.	.	.	.
=37	=37	=37	=37	=37	=37	=37	=37
8E	was	2EM	.	voice	.	49.779	E:maj
8AA	a	.	.	.	.	.	.
8BB	while	.	.	.	.	.	.
8GG#	a-	.	.	.	.	.	.
4AA	-go	2AM	.	voice	D	50.465	A:maj
8r	.	.	.	.	.	.	.
8AA	We	.	.	.	.	.	.
=38	=38	=38	=38	=38	=38	=38	=38
4C#	fire	1AM	newline	voice	.	51.151	A:maj
4E	once	.	.	.	.	.	.
4E	more	.	.	.	.	.	.
8C#	and	.	.	.	.	.	.
[8E	they	.	.	.	.	.	.
=39	=39	=39	=39	=39	=39	=39	=39
8E]	_	1AM	.	voice	.	52.498	A:maj
8F#	be-	.	.	.	.	.	.
8E	-gan	.	.	.	.	.	.
8C#	to	.	.	.	.	.	.
8BB	run-	.	.	.	(C	.	.
8AA	-nin'	.	.	.	c)	.	.
8r	.	.	.	.	.	.	.
8AA	On	.	.	.	.	.	.
=40	=40	=40	=40	=40	=40	=40	=40
8C#	down	1AM	.	voice	.	53.844	A:maj
8E	the	.	.	.	.	.	.
8E	Mi-	.	.	.	.	.	.
8E	-ssi-	.	.	.	.	.	.
8E	-ssi-	.	.	.	.	.	.
8E	-ppi	.	.	.	.	.	.
8E	to	.	.	.	.	.	.
8E	the	.	.	.	.	.	.
=41	=41	=41	=41	=41	=41	=41	=41
8E	Gulf	2EM	.	voice	.	55.19	E:maj
8AA	of	.	.	.	.	.	.
8BB	Me-	.	.	.	.	.	.
8GG#	-xi-	.	.	.	.	.	.
2AA	-co	2AM	.	voice	D	55.864	A:maj
=42	=42	=42	=42	=42	=42	=42	=42
1r	.	1AM	.	voice	.	56.537	A:maj
=43	=43	=43	=43	=43	=43	=43	=43
2.r	.	1AM	.	voice	.	57.883	A:maj
4A	Old	.	.	.	.	.	.
=44	=44	=44	=44	=44	=44	=44	=44
*>Letter>B	*>Letter>B	*>Letter>B	*>Letter>B	*>Letter>B	*>Letter>B	*>Letter>B	*>Letter>B
*>Label>Verse	*>Label>Verse	*>Label>Verse	*>Label>Verse	*>Label>Verse	*>Label>Verse	*>Label>Verse	*>Label>Verse
8c#	Hi-	1AM	newline	voice	.	59.23	A:maj
8r	.	.	.	.	.	.	.
4c#	-ckory	.	.	.	.	.	.
8c#	said	.	.	.	.	.	.
8r	.	.	.	.	.	.	.
8A	we	.	.	.	.	.	.
8A	could	.	.	.	.	.	.
=45	=45	=45	=45	=45	=45	=45	=45
8B	take	1DM	.	voice	.	60.585	D:maj
8A	'em	.	.	.	.	.	.
8B	by	.	.	.	.	.	.
8A	sur-	.	.	.	.	.	.
4F#	-prise	.	.	.	F	.	.
8F#	If	.	.	.	.	.	.
8A	we	.	.	.	.	.	.
=46	=46	=46	=46	=46	=46	=46	=46
8B	di-	1EMm	.	voice	.	61.941	E:7
8A#	-dn't	.	.	.	.	.	.
8B	fire	.	.	.	.	.	.
8c#	our	.	.	.	.	.	.
8B	musk-	.	.	.	.	.	.
8A	-ets	.	.	.	.	.	.
8F#	'till	.	.	.	.	.	.
8E	we	.	.	.	.	.	.
=47	=47	=47	=47	=47	=47	=47	=47
8A	looked	1AM	.	voice	.	63.297	A:maj
8A	'em	.	.	.	.	.	.
8A	in	.	.	.	.	.	.
8A	the	.	.	.	.	.	.
4E	eyes	.	.	.	F	.	.
8r	.	.	.	.	.	.	.
8A	We	.	.	.	.	.	.
=48	=48	=48	=48	=48	=48	=48	=48
4c#	held	1AM	newline	voice	.	64.653	A:maj
4c#	our	.	.	.	.	.	.
8c#	fire	.	.	.	.	.	.
8B	_	.	.	.	.	.	.
8A	'till	.	.	.	.	.	.
8A	we	.	.	.	.	.	.
=49	=49	=49	=49	=49	=49	=49	=49
8B	seed	1DM	.	voice	.	65.892	D:maj
8A	their	.	.	.	.	.	.
8B	fa-	.	.	.	.	.	.
8A	-ces	.	.	.	.	.	.
4F#	well	.	.	.	.	.	.
8A	Then	.	.	.	.	.	.
8A	we	.	.	.	.	.	.
=50	=50	=50	=50	=50	=50	=50	=50
8B	open-	1EMm	.	voice	.	67.13	E:7
8A	-ed	.	.	.	.	.	.
8B	up	.	.	.	.	.	.
8A	our	.	.	.	.	.	.
8B	squi-	.	.	.	.	.	.
8A	-rrel	.	.	.	.	.	.
8F#	guns	.	.	.	.	.	.
8E	and	.	.	.	.	.	.
=51	=51	=51	=51	=51	=51	=51	=51
8A	rea-	1AM;	.	voice	.	68.369	A:maj
8A	-lly	.	.	.	.	.	.
8A	gave	.	.	.	.	.	.
8A	'em	.	.	.	.	.	.
4A	Well	.	.	.	.	.	.
4E	We	.	.	.	.	.	.
=52	=52	=52	=52	=52	=52	=52	=52
*>Letter>C	*>Letter>C	*>Letter>C	*>Letter>C	*>Letter>C	*>Letter>C	*>Letter>C	*>Letter>C
*>Label>Chorus	*>Label>Chorus	*>Label>Chorus	*>Label>Chorus	*>Label>Chorus	*>Label>Chorus	*>Label>Chorus	*>Label>Chorus
4C#	fire	1AM	newline	r	.	70.846	A:maj
4E	our	.	.	.	.	.	.
4E	guns	.	.	.	.	.	.
8E	and	.	.	.	.	.	.
8C#	the	.	.	.	.	.	.
=53	=53	=53	=53	=53	=53	=53	=53
8E	Bri-	1AM	.	r	.	72.22	A:maj
8E	-tish	.	.	.	.	.	.
8E	kept	.	.	.	.	.	.
8C#	a	.	.	.	.	.	.
8BB	com-	.	.	.	(C	.	.
8AA	-in'	.	.	.	c)	.	.
8r	.	.	.	.	.	.	.
8AA	There	.	.	.	.	.	.
=54	=54	=54	=54	=54	=54	=54	=54
8C#	wa-	1AM	.	r	.	73.594	A:maj
8E	-sn't	.	.	.	.	.	.
8E	nigh	.	.	.	.	.	.
8E	as	.	.	.	.	.	.
8E	ma-	.	.	.	.	.	.
8E	-ny	.	.	.	.	.	.
8E	as	.	.	.	.	.	.
8E	there	.	.	.	.	.	.
=55	=55	=55	=55	=55	=55	=55	=55
8E	was	2EM	.	r	.	74.968	E:maj
8AA	a	.	.	.	.	.	.
8BB	while	.	.	.	.	.	.
8GG#	a-	.	.	.	.	.	.
4AA	-go	2AM	.	r	D	75.655	A:maj
8r	.	.	.	.	.	.	.
8AA	We	.	.	.	.	.	.
=56	=56	=56	=56	=56	=56	=56	=56
4C#	fire	1AM	newline	r	.	76.342	A:maj
4E	once	.	.	.	.	.	.
4E	more	.	.	.	.	.	.
8C#	and	.	.	.	.	.	.
[8E	they	.	.	.	.	.	.
=57	=57	=57	=57	=57	=57	=57	=57
8E]	_	1AM	.	r	.	77.689	A:maj
8F#	be-	.	.	.	.	.	.
8E	-gan	.	.	.	.	.	.
8C#	to	.	.	.	.	.	.
8BB	run-	.	.	.	(C	.	.
8AA	-nin'	.	.	.	c)	.	.
8r	.	.	.	.	.	.	.
8AA	On	.	.	.	.	.	.
=58	=58	=58	=58	=58	=58	=58	=58
8C#	down	1AM	.	r	.	79.036	A:maj
8E	the	.	.	.	.	.	.
8E	Mi-	.	.	.	.	.	.
8E	-ssi-	.	.	.	.	.	.
8E	-ssi-	.	.	.	.	.	.
8E	-ppi	.	.	.	.	.	.
8E	to	.	.	.	.	.	.
8E	the	.	.	.	.	.	.
=59	=59	=59	=59	=59	=59	=59	=59
8E	Gulf	2EM	.	r	.	80.382	E:maj
8AA	of	.	.	.	.	.	.
8BB	Me-	.	.	.	.	.	.
8GG#	-xi-	.	.	.	.	.	.
4AA	-co	2AM	.	r	D	81.056	A:maj
4r	.	.	.	.	.	.	.
=60	=60	=60	=60	=60	=60	=60	=60
1r	.	1AM	.	r	.	81.729	A:maj
=61	=61	=61	=61	=61	=61	=61	=61
2.r	.	1AM	.	r	.	83.076	A:maj
8e	Yeah	.	.	.	.	.	.
8e	they	.	.	.	.	.	.
=62	=62	=62	=62	=62	=62	=62	=62
*>Letter>C2	*>Letter>C2	*>Letter>C2	*>Letter>C2	*>Letter>C2	*>Letter>C2	*>Letter>C2	*>Letter>C2
*>Label>Bridge	*>Label>Bridge	*>Label>Bridge	*>Label>Bridge	*>Label>Bridge	*>Label>Bridge	*>Label>Bridge	*>Label>Bridge
4e	ran	1AM	newline	r	.	84.423	A:maj
8e	through	.	.	.	.	.	.
8e	the	.	.	.	.	.	.
8e	brier-	.	.	.	.	.	.
8e	-s	.	.	.	.	.	.
8e	and	.	.	.	.	.	.
8e	they	.	.	.	.	.	.
=63	=63	=63	=63	=63	=63	=63	=63
4e	ran	1AM	.	r	.	85.756	A:maj
8e	through	.	.	.	.	.	.
8e	the	.	.	.	.	.	.
8B	bram-	.	.	.	.	.	.
8A	-bles	.	.	.	.	.	.
8A	And	.	.	.	.	.	.
8A	they	.	.	.	.	.	.
=64	=64	=64	=64	=64	=64	=64	=64
4c#	ran	1AM	.	r	.	87.09	A:maj
8e	through	.	.	.	.	.	.
8e	the	.	.	.	.	.	.
8e	bu-	.	.	.	.	.	.
8e	-shes	.	.	.	.	.	.
8e	where	.	.	.	.	.	.
8e	a	.	.	.	.	.	.
=65	=65	=65	=65	=65	=65	=65	=65
8e	ra-	2EM	.	r	.	88.424	E:maj
8A	-bbit	.	.	.	.	.	.
8B	coul-	.	.	.	.	.	.
8G#	-dn't	.	.	.	.	.	.
4A	go	2AM	.	r	D	89.091	A:maj
16e	_	.	.	.	.	.	.
16r	.	.	.	.	.	.	.
8A	They	.	.	.	.	.	.
=66	=66	=66	=66	=66	=66	=66	=66
4c#	ran	1AM	newline	r	.	89.758	A:maj
4e	so	.	.	.	.	.	.
4e	fast	.	.	.	.	.	.
8e	that	.	.	.	.	.	.
8e	the	.	.	.	.	.	.
=67	=67	=67	=67	=67	=67	=67	=67
4e	hounds	1AM	.	r	.	91.116	A:maj
8e	coul-	.	.	.	.	.	.
8e	-dn't	.	.	.	.	.	.
8B	catch	.	.	.	.	.	.
8A	'em	.	.	.	.	.	.
8r	.	.	.	.	.	.	.
8A	On	.	.	.	.	.	.
=68	=68	=68	=68	=68	=68	=68	=68
8c#	down	1AM	.	r	.	92.475	A:maj
8e	the	.	.	.	.	.	.
8e	Mi-	.	.	.	.	.	.
8e	-ssi-	.	.	.	.	.	.
8e	-ssi-	.	.	.	.	.	.
8e	-ppi	.	.	.	.	.	.
8e	to	.	.	.	.	.	.
8e	the	.	.	.	.	.	.
=69	=69	=69	=69	=69	=69	=69	=69
8e	Gulf	2EM	.	r	.	93.834	E:maj
8A	of	.	.	.	.	.	.
8B	Me-	.	.	.	.	.	.
8G#	-xi-	.	.	.	.	.	.
2A	-co	2AM	.	r	D	94.513	A:maj
=70	=70	=70	=70	=70	=70	=70	=70
1r	.	1AM	newline	r	.	95.193	A:maj
=71	=71	=71	=71	=71	=71	=71	=71
1r	.	1AM	.	r	.	96.538	A:maj
=72	=72	=72	=72	=72	=72	=72	=72
1r	.	1AM	.	r	.	97.883	A:maj
=73	=73	=73	=73	=73	=73	=73	=73
2.r	.	1AM	.	r	.	99.228	A:maj
4A	We	.	.	.	.	.	.
=74	=74	=74	=74	=74	=74	=74	=74
*>Letter>B	*>Letter>B	*>Letter>B	*>Letter>B	*>Letter>B	*>Letter>B	*>Letter>B	*>Letter>B
*>Label>Verse	*>Label>Verse	*>Label>Verse	*>Label>Verse	*>Label>Verse	*>Label>Verse	*>Label>Verse	*>Label>Verse
4c#	fire	1AM	newline	r	.	100.574	A:maj
4c#	our	.	.	.	.	.	.
8c#	can-	.	.	.	.	.	.
8B	-non	.	.	.	.	.	.
8A	'till	.	.	.	.	.	.
8A	the	.	.	.	.	.	.
=75	=75	=75	=75	=75	=75	=75	=75
8B	bar-	1DM	.	r	.	101.919	D:maj
8A	-rel	.	.	.	.	.	.
8B	melt-	.	.	.	.	.	.
8A	-ed	.	.	.	.	.	.
4F#	down	.	.	.	G	.	.
8F#	So	.	.	.	.	.	.
8A	we	.	.	.	.	.	.
=76	=76	=76	=76	=76	=76	=76	=76
8B	grabbed	1EMm	.	r	.	103.265	E:7
8A	an	.	.	.	.	.	.
8B	a-	.	.	.	.	.	.
8A	-lli-	.	.	.	.	.	.
8B	-ga-	.	.	.	.	.	.
8A	-tor	.	.	.	.	.	.
8F#	and	.	.	.	.	.	.
8E	we	.	.	.	.	.	.
=77	=77	=77	=77	=77	=77	=77	=77
8A	fought	1AM	.	r	.	104.611	A:maj
8A	a-	.	.	.	.	.	.
8A	-no-	.	.	.	.	.	.
8A	-ther	.	.	.	.	.	.
4E	round	.	.	.	G	.	.
8r	.	.	.	.	.	.	.
8A	We	.	.	.	.	.	.
=78	=78	=78	=78	=78	=78	=78	=78
8c#	filled	1AM	newline	r	.	105.957	A:maj
8B#	his	.	.	.	.	.	.
8c#	head	.	.	.	.	.	.
8B#	with	.	.	.	.	.	.
8c#	ca-	.	.	.	.	.	.
8B	-nnon-	.	.	.	.	.	.
8A	-balls	.	.	.	.	.	.
8A	'n	.	.	.	.	.	.
=79	=79	=79	=79	=79	=79	=79	=79
8B	pow-	1DM	.	r	.	107.31	D:maj
8A	-dered	.	.	.	.	.	.
8B	his	.	.	.	.	.	.
8A	be-	.	.	.	.	.	.
4F#	-hind	.	.	.	H	.	.
8r	.	.	.	.	.	.	.
8A	And	.	.	.	.	.	.
=80	=80	=80	=80	=80	=80	=80	=80
8B	when	1EMm	.	r	.	108.663	E:7
8A	we	.	.	.	.	.	.
8B	touched	.	.	.	.	.	.
8A	the	.	.	.	.	.	.
8B	pow-	.	.	.	.	.	.
8A	-der	.	.	.	.	.	.
8F#	off	.	.	.	.	.	.
8E	the	.	.	.	.	.	.
=81	=81	=81	=81	=81	=81	=81	=81
8A	ga-	1AM	.	r	.	110.017	A:maj
8A	-tor	.	.	.	.	.	.
8A	lost	.	.	.	.	.	.
8A	his	.	.	.	.	.	.
4A	mind	.	.	.	H	.	.
8r	.	.	.	.	.	.	.
8AA	We	.	.	.	.	.	.
=82	=82	=82	=82	=82	=82	=82	=82
*>Letter>C	*>Letter>C	*>Letter>C	*>Letter>C	*>Letter>C	*>Letter>C	*>Letter>C	*>Letter>C
*>Label>Chorus	*>Label>Chorus	*>Label>Chorus	*>Label>Chorus	*>Label>Chorus	*>Label>Chorus	*>Label>Chorus	*>Label>Chorus
4C#	fire	1AM	newline	r	.	111.37	A:maj
4E	our	.	.	.	.	.	.
4E	guns	.	.	.	.	.	.
8E	and	.	.	.	.	.	.
8C#	the	.	.	.	.	.	.
=83	=83	=83	=83	=83	=83	=83	=83
8E	Bri-	1AM	.	r	.	112.738	A:maj
8E	-tish	.	.	.	.	.	.
8E	kept	.	.	.	.	.	.
8C#	a	.	.	.	.	.	.
8BB	com-	.	.	.	(C	.	.
8AA	-in'	.	.	.	c)	.	.
8r	.	.	.	.	.	.	.
8AA	There	.	.	.	.	.	.
=84	=84	=84	=84	=84	=84	=84	=84
8C#	wa-	1AM	.	r	.	114.106	A:maj
8E	-sn't	.	.	.	.	.	.
8E	nigh	.	.	.	.	.	.
8E	as	.	.	.	.	.	.
8E	ma-	.	.	.	.	.	.
8E	-ny	.	.	.	.	.	.
8E	as	.	.	.	.	.	.
8E	there	.	.	.	.	.	.
=85	=85	=85	=85	=85	=85	=85	=85
8E	was	2EM	.	r	.	115.474	E:maj
8AA	a	.	.	.	.	.	.
8BB	while	.	.	.	.	.	.
8GG#	a-	.	.	.	.	.	.
4AA	-go	2AM	.	r	D	116.158	A:maj
8r	.	.	.	.	.	.	.
8AA	We	.	.	.	.	.	.
=86	=86	=86	=86	=86	=86	=86	=86
4C#	fire	1AM	newline	r	.	116.842	A:maj
4E	once	.	.	.	.	.	.
4E	more	.	.	.	.	.	.
8C#	and	.	.	.	.	.	.
[8E	they	.	.	.	.	.	.
=87	=87	=87	=87	=87	=87	=87	=87
8E]	_	1AM	.	r	.	118.19	A:maj
8F#	be-	.	.	.	.	.	.
8E	-gan	.	.	.	.	.	.
8C#	to	.	.	.	.	.	.
8BB	run-	.	.	.	(C	.	.
8AA	-nin'	.	.	.	c)	.	.
8r	.	.	.	.	.	.	.
8AA	On	.	.	.	.	.	.
=88	=88	=88	=88	=88	=88	=88	=88
8C#	down	1AM	.	r	.	119.539	A:maj
8E	the	.	.	.	.	.	.
8E	Mi-	.	.	.	.	.	.
8E	-ssi-	.	.	.	.	.	.
8E	-ssi-	.	.	.	.	.	.
8E	-ppi	.	.	.	.	.	.
8E	to	.	.	.	.	.	.
8E	the	.	.	.	.	.	.
=89	=89	=89	=89	=89	=89	=89	=89
8E	Gulf	2EM	.	r	.	120.888	E:maj
8AA	of	.	.	.	.	.	.
8BB	Me-	.	.	.	.	.	.
8GG#	-xi-	.	.	.	.	.	.
2AA	-co	2AM	.	r	D	121.562	A:maj
=90	=90	=90	=90	=90	=90	=90	=90
1r	.	1AM	.	r	.	122.237	A:maj
=91	=91	=91	=91	=91	=91	=91	=91
2.r	.	1AM	.	r	.	123.586	A:maj
8e	Yeah	.	.	.	.	.	.
8e	they	.	.	.	.	.	.
=92	=92	=92	=92	=92	=92	=92	=92
*>Letter>C3	*>Letter>C3	*>Letter>C3	*>Letter>C3	*>Letter>C3	*>Letter>C3	*>Letter>C3	*>Letter>C3
*>Label>Bridge	*>Label>Bridge	*>Label>Bridge	*>Label>Bridge	*>Label>Bridge	*>Label>Bridge	*>Label>Bridge	*>Label>Bridge
4e	ran	1AM	newline	r	.	124.934	A:maj
8e	through	.	.	.	.	.	.
8e	the	.	.	.	.	.	.
8e	brier-	.	.	.	.	.	.
8e	-s	.	.	.	.	.	.
8e	and	.	.	.	.	.	.
8e	they	.	.	.	.	.	.
=93	=93	=93	=93	=93	=93	=93	=93
4e	ran	1AM	.	r	.	126.286	A:maj
8e	through	.	.	.	.	.	.
8e	the	.	.	.	.	.	.
8B	bram-	.	.	.	.	.	.
8A	-bles	.	.	.	.	.	.
8A	And	.	.	.	.	.	.
8A	they	.	.	.	.	.	.
=94	=94	=94	=94	=94	=94	=94	=94
4c#	ran	1AM	.	r	.	127.638	A:maj
8e	through	.	.	.	.	.	.
8e	the	.	.	.	.	.	.
8e	bu-	.	.	.	.	.	.
8e	-shes	.	.	.	.	.	.
8e	where	.	.	.	.	.	.
8e	a	.	.	.	.	.	.
=95	=95	=95	=95	=95	=95	=95	=95
8e	ra-	2EM	.	r	.	128.99	E:maj
8A	-bbit	.	.	.	.	.	.
8B	coul-	.	.	.	.	.	.
8G#	-dn't	.	.	.	.	.	.
4A	go	2AM	.	r	D	129.666	A:maj
16e	_	.	.	.	.	.	.
16r	.	.	.	.	.	.	.
8A	They	.	.	.	.	.	.
=96	=96	=96	=96	=96	=96	=96	=96
4c#	ran	1AM	newline	r	.	130.342	A:maj
4e	so	.	.	.	.	.	.
4e	fast	.	.	.	.	.	.
8e	that	.	.	.	.	.	.
8e	the	.	.	.	.	.	.
=97	=97	=97	=97	=97	=97	=97	=97
4e	hounds	1AM	.	r	.	131.708	A:maj
8e	coul-	.	.	.	.	.	.
8e	-dn't	.	.	.	.	.	.
8B	catch	.	.	.	.	.	.
8A	'em	.	.	.	.	.	.
8r	.	.	.	.	.	.	.
8A	On	.	.	.	.	.	.
=98	=98	=98	=98	=98	=98	=98	=98
8c#	down	1AM	.	r	.	133.074	A:maj
8e	the	.	.	.	.	.	.
8e	Mi-	.	.	.	.	.	.
8e	-ssi-	.	.	.	.	.	.
8e	-ssi-	.	.	.	.	.	.
8e	-ppi	.	.	.	.	.	.
8e	to	.	.	.	.	.	.
8e	the	.	.	.	.	.	.
=99	=99	=99	=99	=99	=99	=99	=99
8e	Gulf	2EM	.	r	.	134.44	E:maj
8A	of	.	.	.	.	.	.
8B	Me-	.	.	.	.	.	.
8G#	-xi-	.	.	.	.	.	.
2A	-co	2AM	.	r	D	135.123	A:maj
=100	=100	=100	=100	=100	=100	=100	=100
*>Letter>D	*>Letter>D	*>Letter>D	*>Letter>D	*>Letter>D	*>Letter>D	*>Letter>D	*>Letter>D
*>Label>Outro	*>Label>Outro	*>Label>Outro	*>Label>Outro	*>Label>Outro	*>Label>Outro	*>Label>Outro	*>Label>Outro
8e	_	1AM	newline	r	.	135.806	A:maj
8r	.	.	.	.	.	.	.
4r	.	.	.	.	.	.	.
2r	.	.	.	.	.	.	.
=101	=101	=101	=101	=101	=101	=101	=101
1r	.	1AM	.	r	.	137.158	A:maj
=102	=102	=102	=102	=102	=102	=102	=102
1r	.	1AM	.	r	.	138.51	A:maj
=103	=103	=103	=103	=103	=103	=103	=103
1r	.	1AM	.	r	.	139.861	A:maj
=104	=104	=104	=104	=104	=104	=104	=104
*>Label>>Fadeout	*>Label>>Fadeout	*>Label>>Fadeout	*>Label>>Fadeout	*>Label>>Fadeout	*>Label>>Fadeout	*>Label>>Fadeout	*>Label>>Fadeout
1r	.	1AM	newline	r	.	141.213	A:maj
=105	=105	=105	=105	=105	=105	=105	=105
1r	.	1AM	.	r	.	142.553	A:maj
=106	=106	=106	=106	=106	=106	=106	=106
1r	.	1AM	.	r	.	143.894	A:maj
=107	=107	=107	=107	=107	=107	=107	=107
1r	.	1AM	.	r	.	145.234	A:maj
=108	=108	=108	=108	=108	=108	=108	=108
1r	.	1AM	newline	voice	.	146.574	A:maj
=109	=109	=109	=109	=109	=109	=109	=109
1r	.	1AM	.	voice	.	147.886	A:maj
=110	=110	=110	=110	=110	=110	=110	=110
1r	.	1AM	.	voice	.	149.198	A:maj
=111	=111	=111	=111	=111	=111	=111	=111
1r	.	1AM	.	voice	.	150.509	A:maj
r;	.	1r;	.	r	.	151.821	N.C.
r;	.	1r;	.	r	.	152.551	N.C.
*-	*-	*-	*-	*-	*-	*-	*-
!!!BillboardChartDate: 1959/04/27, 1959/08/24
!!!BillboardPeak: 1, 1
!!!BillboardWeeksOnChart: 20, 20
!!!COC: Johnny Horton
!!!EMD: I made the banjo introduction a part of the introduction. -Nat
!!!ENC: Nathaniel Condit-Schultz
!!!EST: Awating manual error checking and editing.
!!!OTL: The Battle Of New Orleans
!!!RDF**chordsym: original McGill chord annotation + (implied pitch class set, with bass pitch in first position)
!!!RDF**harmony: **recip + pitch class of root + harmonic quality
!!!RDF**leadinstrument: original McGill primary instrumentation annotation
!!!RDF**phrase: newline = linebreak in original McGill transcription
!!!RDF**timestamp: McGill audio timestamp in seconds
!!!RDT: 2017/01/12/
!!!SampleActualRank: 93, 25
!!!SampleID#: 500, 873
!!!SampleTargetRank: 93, 26
